data/yuji-mai.svg

<svg width="63.126" height="20.272" viewBox="0 0 63.126 20.272" xmlns="http://www.w3.org/2000/svg"><path transform="translate(0 16.24) scale(.014 -.014)" d="m836 536q-19-42-37.5-59t-26.5-19q-10 7-19.5 15t-26.5 12q-6 15-1 27t12 22q6 10 10.5 21t-2.5 24q-39 5-69.5-2.5t-55.5-24.5q-43-28-75-58t-68-68q-22-62-23.5-121.5t5.5-137.5q2-18 1-41t-4-42q38-18 59-51 2-14-0.5-32t-18.5-19q-9 0-19.5-0.5t-21.5-1.5q-35-3-72.5-3.5t-58.5 10.5q-13 17-9 45t23 44q9 1 16.5 5.5t17.5 7.5q-1 27-0.5 54t0.5 54q1 69-1.5 136t-17 126-50.5 107q-12 17-35 33t-49 28-47 14q-28 4-46-8.5t-21-31.5 14-38q19-1 21 10t1 24q-1 7-1 14t3 11q29-3 41-19.5t11-36.5q-1-23-15.5-45.5t-37.5-32-50 4.5q-2 2-4.5 4t-4.5 4q-24 20-42.5 44t-13.5 66q5 36 32 66t60 39q51 14 99-0.5t88-32.5q1-10 15.5-25.5t34.5-40 39-62 29-91.5q24 26 49.5 59t54.5 66 63 58q42 31 94 42t117-16q9-14 16-38.5t11.5-50.5 6.5-48z"/><path transform="translate(12.096 16.24) scale(.014 -.014)" d="m582 47q2-17-6-23.5t-18-9.5q-23-1-46 5t-38 21-16 42q-30-19-53.5-40t-48.5-36.5-61-19.5q-25-2-48.5 9.5t-38.5 26.5q-28 28-47 76.5t-18 101.5q2 44 15.5 88.5t22.5 81.5q4 14 6.5 30t1.5 25q0 8-3 19.5t-10 19.5-22 5q-10-1-17-15t-13-20q8-19-0.5-31t-24.5-16.5-33-0.5-26 17q3 32 19 62t40 48q10 8 30 17.5t33 7.5q22-3 47-16t44-34 20-49q1-15-4-35.5t-10-38.5q-1-5-2-8-1-5-3-10.5t-3-10.5q-13-45-23.5-94.5t-5-95 39.5-80.5q29-12 57.5-3.5t54 30.5 43.5 50q14 22 20 38.5t6 33-1 40.5q0 4-0.5 8t-0.5 9q-1 9 0 24t2 32q3 32 4 63.5t-6 44.5q1 27 6.5 51t18.5 43q17 7 35 8.5t33-8.5q0-3 0-6.5t0-7.5q1-17 0-34t-11-24q7-40 5.5-81.5t-5.5-85.5q-3-34-5.5-69t-0.5-71q1-12 3-29.5t5-25.5q6-12 17-17.5t22.5-11.5 17.5-20z"/><path transform="translate(21.266 16.24) scale(.014 -.014)" d="m350 481q0-34 0.5-70.5t0.5-74.5q2-89 1.5-180t-13.5-166q-13-23-27-42.5t-36.5-35-61-28.5-100.5-24q-31 12-50.5 29t-36.5 44q-7 17-4 46t26 52q5 1 10.5 2t10.5 2q14 2 26 3.5t23-2.5q12-14 14-33.5t-3.5-37.5-15.5-26q0-10 8-11t11-8q77 13 108 64t35 128q2 33 0 81.5t-4 93.5q-2 24-3 45.5t-1 37.5q0 18-0.5 36t-4.5 29q-1 4-4 8.5t-6 9.5q-7 10-12.5 21t-2.5 23q11 8 24 13t25 4q21-7 33-17t30-16zm19 203q11-35 4-57.5t-24-35-37-18.5q-40-1-57 15.5t-26 31.5q-3 5-4 7 1 4 2 13 2 20 8 42t25 21q10 14 23 15t25-1q6-1 12-1t11 1q12-5 20-15.5t18-17.5z"/><path transform="translate(27.93 16.24) scale(.014 -.014)" d="m275 26q-13-18-36.5-28t-50-11.5-49.5 7.5-35.5 28-8.5 49q12 1 16.5 9t17.5 8q11 7 16 19.5t6 28.5q1 31-1.5 75.5t-5.5 87.5q-1 16-2 30.5t-2 28.5q-1 17-4 32t-7 30q-5 23-8.5 44t2.5 43q35 6 57.5-14.5t33-52.5 7.5-62q-2-12-8-17 2-25 2.5-51.5t0.5-54.5q-1-47 1-93t13-85q23 0 32.5-8.5t11.5-20.5 1-22zm-45 640q4-34-7.5-61t-34.5-35q-16-4-35.5 0t-35.5 14-22 23q-10 25-2 51.5t29.5 43.5 51.5 12q18-3 29-16t27-32z"/><path transform="translate(36.218 16.24) scale(.014 -.014)" d="m941 655q-1-9-4-17t-5-16q-21 1-31.5-2t-23.5-10q-3-2-5-3-5-25-6-49.5t-2-52.5q0-13 0-27.5t-1-29.5q-1-13-2-26.5t-2-27.5q-3-22-4.5-44t-0.5-46q2-52 9-105.5t8-99.5q11-11 24.5-20.5t29.5-15.5q-1-4-0.5-8t1.5-8q2-7 2-11-10-10-21.5-19t-20.5-20q-17-4-45-6t-56 4-47.5 22.5-19.5 48.5q11 18 25.5 25t43.5 8q5 77 3.5 164t-5.5 170-8 150q0 4-0.5 7.5t-0.5 7.5q-30-14-57-29.5t-48-36.5q-16-16-34.5-41.5t-28.5-48.5q-3-7-3-15t-3-15q-2-6-7.5-11.5t-7.5-12.5q-6-22-4.5-45.5t4.5-48.5q5-36 5-70t-26-61q-31-4-50.5 0.5t-45.5 14.5q1 6-2.5 13t-7.5 14q-6 10-11 21t-3 24q2 8 11.5 21t15.5 27q2 6 1.5 13t1.5 11q5 10 14 18.5t10 20.5q2 14-3.5 36.5t-13.5 46-16 40.5q-20 43-43.5 72t-52.5 54q-15 12-41 20t-53 7.5-44-13.5-13-44q8 3 10 7.5t14 7.5q25-2 38-6.5t22.5-12.5 20.5-23q2-72 0.5-158.5t-6.5-160.5q-1-21-5-54t-7-54q-2-12-20-24t-31-24q-34-32-81.5-53.5t-101.5-36.5q-7 7-19 8.5t-17 9.5q1 50 15 93t43.5 73 76.5 38q15-13 26.5-20.5t18.5-27.5q-18-17-40.5-30t-39.5-31.5-19-52.5q44 8 70.5 35t39.5 65q16 44 19 98.5t-0.5 110.5-7.5 101q-1 11-2 21.5t-2 19.5q-6 0-10 0t-7 0q-6 0-12.5 0.5t-18.5 2.5q-35 23-35 63t23 76q20 32 54.5 52t74.5 16q20-10 44-12t50-12q21-26 51.5-43t53.5-41q1-5 0-5.5t-3 1.5q-6 3-6-2 8-23 20.5-41t23.5-37 16-45q23 31 39.5 63t44.5 57q39 35 88.5 57t100.5 45q32-4 59.5-10.5t54.5-28.5z"/><path transform="translate(50.372 16.24) scale(.014 -.014)" d="m532 21q-13-21-39-26t-53 3.5-45 29.5-17 51q-4-3-8.5-6.5t-8.5-6.5q-31-25-66.5-46.5t-83.5-19.5q-20 1-42 5.5t-39 17.5q-25 20-36.5 56.5t-7.5 76.5 24 69q54 41 119.5 67.5t137.5 47.5q0 4 0.5 8.5t1.5 10.5q3 17 4 39t-4 41-23 27q-10 5-27.5 6t-26.5 0q-29-3-60.5-22t-39.5-50q-7-4-12.5-8.5t-11.5-9.5q-9-9-19.5-16t-25.5-7q-28 1-47 22.5t-12 43.5q7 21 25 35.5t40.5 25.5 44.5 20.5 37 21.5q34 9 80 11.5t97-12.5q12-7 23-23.5t20-35.5 15.5-33.5 9.5-18.5q1-25-1.5-54t-6.5-58q-4-43-7-86.5t2.5-82.5 25.5-69q19-4 37.5-14.5t25.5-30.5zm-162 168q2 11 1.5 23.5t-0.5 25.5q-1 9-1 18t0 18q-24-5-59-18t-69.5-30-57.5-35q-16-13-20-43t1-52q20-22 44-19t48 11q9 3 17.5 5.5t17.5 3.5q12 18 29 29.5t31.5 25 17.5 37.5z"/><path transform="translate(58.338 16.24) scale(.014 -.014)" d="m275 26q-13-18-36.5-28t-50-11.5-49.5 7.5-35.5 28-8.5 49q12 1 16.5 9t17.5 8q11 7 16 19.5t6 28.5q1 31-1.5 75.5t-5.5 87.5q-1 16-2 30.5t-2 28.5q-1 17-4 32t-7 30q-5 23-8.5 44t2.5 43q35 6 57.5-14.5t33-52.5 7.5-62q-2-12-8-17 2-25 2.5-51.5t0.5-54.5q-1-47 1-93t13-85q23 0 32.5-8.5t11.5-20.5 1-22zm-45 640q4-34-7.5-61t-34.5-35q-16-4-35.5 0t-35.5 14-22 23q-10 25-2 51.5t29.5 43.5 51.5 12q18-3 29-16t27-32z"/></svg>

<?xml version="1.0" encoding="utf-8" ?>
<svg baseProfile="tiny" height="100%" version="1.2" width="100%" xmlns="http://www.w3.org/2000/svg" xmlns:ev="http://www.w3.org/2001/xml-events" xmlns:xlink="http://www.w3.org/1999/xlink"><defs /><g><path d="M836 536Q817 494 798.5 477.0Q780 460 772 458Q762 465 752.5 473.0Q743 481 726 485Q720 500 725.0 512.0Q730 524 737 534Q743 544 747.5 555.0Q752 566 745 579Q706 584 675.5 576.5Q645 569 620 552Q577 524 545.0 494.0Q513 464 477 426Q455 364 453.5 304.5Q452 245 459 167Q461 149 460.0 126.0Q459 103 456 84Q494 66 515 33Q517 19 514.5 1.0Q512 -17 496 -18Q487 -18 476.5 -18.5Q466 -19 455 -20Q420 -23 382.5 -23.5Q345 -24 324 -13Q311 4 315.0 32.0Q319 60 338 76Q347 77 354.5 81.5Q362 86 372 89Q371 116 371.5 143.0Q372 170 372 197Q373 266 370.5 333.0Q368 400 353.5 459.0Q339 518 303 566Q291 583 268.0 599.0Q245 615 219.0 627.0Q193 639 172 641Q144 645 126.0 632.5Q108 620 105.0 601.0Q102 582 119 563Q138 562 140.0 573.0Q142 584 141 597Q140 604 140.0 611.0Q140 618 143 622Q172 619 184.0 602.5Q196 586 195 566Q194 543 179.5 520.5Q165 498 142.0 488.5Q119 479 92 493Q90 495 87.5 497.0Q85 499 83 501Q59 521 40.5 545.0Q22 569 27 611Q32 647 59.0 677.0Q86 707 119 716Q170 730 218.0 715.5Q266 701 306 683Q307 673 321.5 657.5Q336 642 356.0 617.5Q376 593 395.0 555.5Q414 518 424 464Q448 490 473.5 523.0Q499 556 528.0 589.0Q557 622 591 647Q633 678 685.0 689.0Q737 700 802 673Q811 659 818.0 634.5Q825 610 829.5 584.0Q834 558 836 536Z" transform="translate(0.0, 72) scale(0.072, -0.072)" /><path d="M582 47Q584 30 576.0 23.5Q568 17 558 14Q535 13 512.0 19.0Q489 25 474.0 40.0Q459 55 458 82Q428 63 404.5 42.0Q381 21 356.0 5.5Q331 -10 295 -14Q270 -16 246.5 -4.5Q223 7 208 22Q180 50 161.0 98.5Q142 147 143 200Q145 244 158.5 288.5Q172 333 181 370Q185 384 187.5 400.0Q190 416 189 425Q189 433 186.0 444.5Q183 456 176.0 464.0Q169 472 154 469Q144 468 137.0 454.0Q130 440 124 434Q132 415 123.5 403.0Q115 391 99.0 386.5Q83 382 66.0 386.0Q49 390 40 403Q43 435 59.0 465.0Q75 495 99 513Q109 521 129.0 530.5Q149 540 162 538Q184 535 209.0 522.0Q234 509 253.0 488.0Q272 467 273 439Q274 424 269.0 403.5Q264 383 259 365Q258 360 257 357Q256 352 254.0 346.5Q252 341 251 336Q238 291 227.5 241.5Q217 192 222.5 146.5Q228 101 262 66Q291 54 319.5 62.5Q348 71 373.5 93.0Q399 115 417 143Q431 165 437.0 181.5Q443 198 443.0 214.5Q443 231 442 255Q442 259 441.5 263.0Q441 267 441 272Q440 281 441.0 296.0Q442 311 443 328Q446 360 447.0 391.5Q448 423 441 436Q442 463 447.5 487.0Q453 511 466 530Q483 537 501.0 538.5Q519 540 534 530Q534 527 534.0 523.5Q534 520 534 516Q535 499 534.0 482.0Q533 465 523 458Q530 418 528.5 376.5Q527 335 523 291Q520 257 517.5 222.0Q515 187 517 151Q518 139 520.0 121.5Q522 104 525 96Q531 84 542.0 78.5Q553 73 564.5 67.0Q576 61 582 47Z" transform="translate(62.208, 72) scale(0.072, -0.072)" /><path d="M350 481Q350 447 350.5 410.5Q351 374 351 336Q353 247 352.5 156.0Q352 65 339 -10Q326 -33 312.0 -52.5Q298 -72 275.5 -87.5Q253 -103 214.5 -116.0Q176 -129 114 -140Q83 -128 63.5 -111.0Q44 -94 27 -67Q20 -50 23.0 -21.0Q26 8 49 31Q54 32 59.5 33.0Q65 34 70 35Q84 37 96.0 38.5Q108 40 119 36Q131 22 133.0 2.5Q135 -17 129.5 -35.0Q124 -53 114 -61Q114 -71 122.0 -72.0Q130 -73 133 -80Q210 -67 241.0 -16.0Q272 35 276 112Q278 145 276.0 193.5Q274 242 272 287Q270 311 269.0 332.5Q268 354 268 370Q268 388 267.5 406.0Q267 424 263 435Q262 439 259.0 443.5Q256 448 253 453Q246 463 240.5 474.0Q235 485 238 497Q249 505 262.0 510.0Q275 515 287 514Q308 507 320.0 497.0Q332 487 350 481ZM369 684Q380 649 373.0 626.5Q366 604 349.0 591.5Q332 579 312 573Q272 572 255.0 588.5Q238 605 229 620Q226 625 225 627Q226 631 227 640Q229 660 235.0 682.0Q241 704 260 703Q270 717 283.0 718.0Q296 719 308 717Q314 716 320.0 716.0Q326 716 331 717Q343 712 351.0 701.5Q359 691 369 684Z" transform="translate(109.368, 72) scale(0.072, -0.072)" /><path d="M275 26Q262 8 238.5 -2.0Q215 -12 188.5 -13.5Q162 -15 139.0 -6.0Q116 3 103.5 22.0Q91 41 95 71Q107 72 111.5 80.0Q116 88 129 88Q140 95 145.0 107.5Q150 120 151 136Q152 167 149.5 211.5Q147 256 144 299Q143 315 142.0 329.5Q141 344 140 358Q139 375 136.0 390.0Q133 405 129 420Q124 443 120.5 464.0Q117 485 123 507Q158 513 180.5 492.5Q203 472 213.5 440.0Q224 408 221 378Q219 366 213 361Q215 336 215.5 309.5Q216 283 216 255Q215 208 217.0 162.0Q219 116 230 77Q253 77 262.5 68.5Q272 60 274.0 48.0Q276 36 275 26ZM230 666Q234 632 222.5 605.0Q211 578 188 570Q172 566 152.5 570.0Q133 574 117.0 584.0Q101 594 95 607Q85 632 93.0 658.5Q101 685 122.5 702.0Q144 719 174 714Q192 711 203.0 698.0Q214 685 230 666Z" transform="translate(143.64, 72) scale(0.072, -0.072)" /><path d="M941 655Q940 646 937.0 638.0Q934 630 932 622Q911 623 900.5 620.0Q890 617 877 610Q874 608 872 607Q867 582 866.0 557.5Q865 533 864 505Q864 492 864.0 477.5Q864 463 863 448Q862 435 861.0 421.5Q860 408 859 394Q856 372 854.5 350.0Q853 328 854 304Q856 252 863.0 198.5Q870 145 871 99Q882 88 895.5 78.5Q909 69 925 63Q924 59 924.5 55.0Q925 51 926 47Q928 40 928 36Q918 26 906.5 17.0Q895 8 886 -3Q869 -7 841.0 -9.0Q813 -11 785.0 -5.0Q757 1 737.5 17.5Q718 34 718 66Q729 84 743.5 91.0Q758 98 787 99Q792 176 790.5 263.0Q789 350 785.0 433.0Q781 516 777 583Q777 587 776.5 590.5Q776 594 776 598Q746 584 719.0 568.5Q692 553 671 532Q655 516 636.5 490.5Q618 465 608 442Q605 435 605.0 427.0Q605 419 602 412Q600 406 594.5 400.5Q589 395 587 388Q581 366 582.5 342.5Q584 319 587 294Q592 258 592.0 224.0Q592 190 566 163Q535 159 515.5 163.5Q496 168 470 178Q471 184 467.5 191.0Q464 198 460 205Q454 215 449.0 226.0Q444 237 446 250Q448 258 457.5 271.0Q467 284 473 298Q475 304 474.5 311.0Q474 318 476 322Q481 332 490.0 340.5Q499 349 500 361Q502 375 496.5 397.5Q491 420 483.0 443.5Q475 467 467 484Q447 527 423.5 556.0Q400 585 371 610Q356 622 330.0 630.0Q304 638 277.0 637.5Q250 637 233.0 624.0Q216 611 220 580Q228 583 230.0 587.5Q232 592 244 595Q269 593 282.0 588.5Q295 584 304.5 576.0Q314 568 325 553Q327 481 325.5 394.5Q324 308 319 234Q318 213 314.0 180.0Q310 147 307 126Q305 114 287.0 102.0Q269 90 256 78Q222 46 174.5 24.5Q127 3 73 -12Q66 -5 54.0 -3.5Q42 -2 37 6Q38 56 52.0 99.0Q66 142 95.5 172.0Q125 202 172 210Q187 197 198.5 189.5Q210 182 217 162Q199 145 176.5 132.0Q154 119 137.0 100.5Q120 82 118 48Q162 56 188.5 83.0Q215 110 228 148Q244 192 247.0 246.5Q250 301 246.5 357.0Q243 413 239 458Q238 469 237.0 479.5Q236 490 235 499Q229 499 225.0 499.0Q221 499 218 499Q212 499 205.5 499.5Q199 500 187 502Q152 525 152.0 565.0Q152 605 175 641Q195 673 229.5 693.0Q264 713 304 709Q324 699 348.0 697.0Q372 695 398 685Q419 659 449.5 642.0Q480 625 503 601Q504 596 503.0 595.5Q502 595 500 597Q494 600 494 595Q502 572 514.5 554.0Q527 536 538.0 517.0Q549 498 554 472Q577 503 593.5 535.0Q610 567 638 592Q677 627 726.5 649.0Q776 671 827 694Q859 690 886.5 683.5Q914 677 941 655Z" transform="translate(186.26399999999998, 72) scale(0.072, -0.072)" /><path d="M532 21Q519 0 493.0 -5.0Q467 -10 440.0 -1.5Q413 7 395.0 28.0Q377 49 378 79Q374 76 369.5 72.5Q365 69 361 66Q330 41 294.5 19.5Q259 -2 211 0Q191 1 169.0 5.5Q147 10 130 23Q105 43 93.5 79.5Q82 116 86.0 156.0Q90 196 110 225Q164 266 229.5 292.5Q295 319 367 340Q367 344 367.5 348.5Q368 353 369 359Q372 376 373.0 398.0Q374 420 369.0 439.0Q364 458 346 466Q336 471 318.5 472.0Q301 473 292 472Q263 469 231.5 450.0Q200 431 192 400Q185 396 179.5 391.5Q174 387 168 382Q159 373 148.5 366.0Q138 359 123 359Q95 360 76.0 381.5Q57 403 64 425Q71 446 89.0 460.5Q107 475 129.5 486.0Q152 497 174.0 506.5Q196 516 211 528Q245 537 291.0 539.5Q337 542 388 527Q400 520 411.0 503.5Q422 487 431.0 468.0Q440 449 446.5 434.5Q453 420 456 416Q457 391 454.5 362.0Q452 333 448 304Q444 261 441.0 217.5Q438 174 443.5 135.0Q449 96 469 66Q488 62 506.5 51.5Q525 41 532 21ZM370 189Q372 200 371.5 212.5Q371 225 371 238Q370 247 370.0 256.0Q370 265 370 274Q346 269 311.0 256.0Q276 243 241.5 226.0Q207 209 184 191Q168 178 164.0 148.0Q160 118 165 96Q185 74 209.0 77.0Q233 80 257 88Q266 91 274.5 93.5Q283 96 292 97Q304 115 321.0 126.5Q338 138 352.5 151.5Q367 165 370 189Z" transform="translate(259.056, 72) scale(0.072, -0.072)" /><path d="M275 26Q262 8 238.5 -2.0Q215 -12 188.5 -13.5Q162 -15 139.0 -6.0Q116 3 103.5 22.0Q91 41 95 71Q107 72 111.5 80.0Q116 88 129 88Q140 95 145.0 107.5Q150 120 151 136Q152 167 149.5 211.5Q147 256 144 299Q143 315 142.0 329.5Q141 344 140 358Q139 375 136.0 390.0Q133 405 129 420Q124 443 120.5 464.0Q117 485 123 507Q158 513 180.5 492.5Q203 472 213.5 440.0Q224 408 221 378Q219 366 213 361Q215 336 215.5 309.5Q216 283 216 255Q215 208 217.0 162.0Q219 116 230 77Q253 77 262.5 68.5Q272 60 274.0 48.0Q276 36 275 26ZM230 666Q234 632 222.5 605.0Q211 578 188 570Q172 566 152.5 570.0Q133 574 117.0 584.0Q101 594 95 607Q85 632 93.0 658.5Q101 685 122.5 702.0Q144 719 174 714Q192 711 203.0 698.0Q214 685 230 666Z" transform="translate(300.024, 72) scale(0.072, -0.072)" /></g></svg>
